X: 1
T:Gallagher's Frolic
H:Another version
B:Joyce, P. W.; "Old Irish Folk Music and Songs"
N:See #'s 347 and 350 for further history
R:song air
A:Limerick
O:Irish
L:1/8
M:6/8
K:C
A/G/|FED FGA/B/|cAd cAG|ABA GcA/G/|~F2 A GED|
FED FGA/B/|cAd cAG|AGF EFE|DED D2::f/g/|
afa geg|gfd cAG|ABA GcA/G/|F2 A GED|
FED FGA/B/|cAd cAG|AGF EDE|DED D2::A/G/|
FGA/B/ cBc|Bcd/B/ cAG|ABc/d/ dBd|def/d/ ecA|
FGA/B/ c2 d|efd cAG|AGF EDE|DED D2::A/c/|
d2 e f2 g|afd cAG|Ecc ecc|gcc edc|
d2 e f2 g|afd cAG|fga/f/ gec|edd d2:|
